Newaita-dark/apps/256/gnome-robots.svg

<?xml version="1.0" encoding="UTF-8"?>
<svg xmlns="http://www.w3.org/2000/svg" xmlns:xlink="http://www.w3.org/1999/xlink" width="256pt" height="256pt" viewBox="0 0 256 256" version="1.1">
<defs>
<radialGradient id="radial0" gradientUnits="userSpaceOnUse" cx="450.908936" cy="189.579361" fx="450.908936" fy="189.579361" r="21.166656" gradientTransform="matrix(0.00000139336,-0.62506,-1.125108,-0.000000812309,356.185215,508.762635)">
<stop offset="0" style="stop-color:rgb(0%,0%,0%);stop-opacity:0.313725;"/>
<stop offset="0.222222" style="stop-color:rgb(0%,0%,0%);stop-opacity:0.27451;"/>
<stop offset="1" style="stop-color:rgb(0%,0%,0%);stop-opacity:0;"/>
</radialGradient>
<radialGradient id="radial1" gradientUnits="userSpaceOnUse" cx="450.908936" cy="189.579361" fx="450.908936" fy="189.579361" r="21.166656" gradientTransform="matrix(-0.00000139336,0.62506,1.125108,0.000000812309,-102.160949,-60.219856)">
<stop offset="0" style="stop-color:rgb(0%,0%,0%);stop-opacity:0.313725;"/>
<stop offset="0.222222" style="stop-color:rgb(0%,0%,0%);stop-opacity:0.27451;"/>
<stop offset="1" style="stop-color:rgb(0%,0%,0%);stop-opacity:0;"/>
</radialGradient>
<radialGradient id="radial2" gradientUnits="userSpaceOnUse" cx="450.908936" cy="189.579361" fx="450.908936" fy="189.579361" r="21.166656" gradientTransform="matrix(-0.00000139336,-0.62506,1.125108,-0.000000812309,-102.160949,508.762635)">
<stop offset="0" style="stop-color:rgb(0%,0%,0%);stop-opacity:0.313725;"/>
<stop offset="0.222222" style="stop-color:rgb(0%,0%,0%);stop-opacity:0.27451;"/>
<stop offset="1" style="stop-color:rgb(0%,0%,0%);stop-opacity:0;"/>
</radialGradient>
<radialGradient id="radial3" gradientUnits="userSpaceOnUse" cx="450.908936" cy="189.579361" fx="450.908936" fy="189.579361" r="21.166656" gradientTransform="matrix(0.00000139336,0.62506,-1.125108,0.000000812309,356.1852,-60.21986)">
<stop offset="0" style="stop-color:rgb(0%,0%,0%);stop-opacity:0.313725;"/>
<stop offset="0.222222" style="stop-color:rgb(0%,0%,0%);stop-opacity:0.27451;"/>
<stop offset="1" style="stop-color:rgb(0%,0%,0%);stop-opacity:0;"/>
</radialGradient>
<linearGradient id="linear0" gradientUnits="userSpaceOnUse" x1="255.323059" y1="233.5" x2="255.323044" y2="254.666656" gradientTransform="matrix(0.10688,0,0,0.500048,99.723089,107.510269)">
<stop offset="0" style="stop-color:rgb(0%,0%,0%);stop-opacity:0.27451;"/>
<stop offset="1" style="stop-color:rgb(0%,0%,0%);stop-opacity:0;"/>
</linearGradient>
<linearGradient id="linear1" gradientUnits="userSpaceOnUse" x1="254" y1="-31.083334" x2="254" y2="95.916664" >
<stop offset="0" style="stop-color:rgb(25.882353%,25.882353%,25.882353%);stop-opacity:1;"/>
<stop offset="1" style="stop-color:rgb(38.039216%,38.039216%,38.039216%);stop-opacity:1;"/>
</linearGradient>
<linearGradient id="linear2" gradientUnits="userSpaceOnUse" x1="254" y1="-168.666672" x2="254" y2="233.5" gradientTransform="matrix(3.779528,0,0,3.779528,0,812.59845)">
<stop offset="0" style="stop-color:rgb(87.843137%,87.843137%,87.843137%);stop-opacity:1;"/>
<stop offset="1" style="stop-color:rgb(61.960784%,61.960784%,61.960784%);stop-opacity:1;"/>
</linearGradient>
<linearGradient id="linear3" gradientUnits="userSpaceOnUse" x1="254" y1="64.166664" x2="254" y2="0.666667" gradientTransform="matrix(0.500048,0,0,0.500048,0,107.510266)">
<stop offset="0" style="stop-color:rgb(93.72549%,32.54902%,31.372549%);stop-opacity:1;"/>
<stop offset="1" style="stop-color:rgb(89.803922%,45.098039%,45.098039%);stop-opacity:1;"/>
</linearGradient>
<linearGradient id="linear4" gradientUnits="userSpaceOnUse" x1="254" y1="64.166664" x2="254" y2="0.666667" gradientTransform="matrix(0.500048,0,0,0.500048,52.976509,107.510266)">
<stop offset="0" style="stop-color:rgb(93.72549%,32.54902%,31.372549%);stop-opacity:1;"/>
<stop offset="1" style="stop-color:rgb(89.803922%,45.098039%,45.098039%);stop-opacity:1;"/>
</linearGradient>
<linearGradient id="linear5" gradientUnits="userSpaceOnUse" x1="254" y1="64.166664" x2="254" y2="0.666667" gradientTransform="matrix(0.500048,0,0,0.500048,-52.921717,107.510266)">
<stop offset="0" style="stop-color:rgb(93.72549%,32.54902%,31.372549%);stop-opacity:1;"/>
<stop offset="1" style="stop-color:rgb(89.803922%,45.098039%,45.098039%);stop-opacity:1;"/>
</linearGradient>
</defs>
<g id="surface1">
<path style=" stroke:none;fill-rule:nonzero;fill:url(#radial0);" d="M 145.535156 224.269531 L 166.703125 224.269531 L 166.703125 213.6875 L 145.535156 213.6875 Z M 145.535156 224.269531 "/>
<path style=" stroke:none;fill-rule:nonzero;fill:url(#radial1);" d="M 108.488281 224.269531 L 87.320312 224.269531 L 87.320312 234.855469 L 108.488281 234.855469 Z M 108.488281 224.269531 "/>
<path style=" stroke:none;fill-rule:nonzero;fill:url(#radial2);" d="M 108.488281 224.269531 L 87.320312 224.269531 L 87.320312 213.6875 L 108.488281 213.6875 Z M 108.488281 224.269531 "/>
<path style=" stroke:none;fill-rule:nonzero;fill:url(#radial3);" d="M 145.535156 224.269531 L 166.703125 224.269531 L 166.703125 234.855469 L 145.535156 234.855469 Z M 145.535156 224.269531 "/>
<path style=" stroke:none;fill-rule:nonzero;fill:url(#linear0);" d="M 108.488281 221.625 L 145.535156 221.625 L 145.535156 234.855469 L 108.488281 234.855469 Z M 108.488281 221.625 "/>
<path style="fill-rule:nonzero;fill:url(#linear1);stroke-width:3;stroke-linecap:round;stroke-linejoin:miter;stroke:rgb(12.941177%,12.941177%,12.941177%);stroke-opacity:1;stroke-miterlimit:4;" d="M 74.086675 -31.080063 L 433.9195 -31.080063 L 433.9195 95.915622 L 74.086675 95.915622 Z M 74.086675 -31.080063 " transform="matrix(0.500048,0,0,0.500048,0,107.510266)"/>
<path style="fill-rule:nonzero;fill:url(#linear2);stroke-width:11.338583;stroke-linecap:round;stroke-linejoin:miter;stroke:rgb(20%,20%,20%);stroke-opacity:1;stroke-miterlimit:4;" d="M 959.996958 175.11124 C 608.239192 175.11124 313.759424 411.722515 226.395715 735.107005 L 1693.627726 735.107005 C 1606.234492 411.722515 1311.754724 175.11124 959.996958 175.11124 Z M 226.395715 1135.108198 C 313.759424 1458.522212 608.239192 1695.103963 959.996958 1695.103963 C 1311.784249 1695.103963 1606.234492 1458.522212 1693.627726 1135.108198 Z M 226.395715 1135.108198 " transform="matrix(0.132304,0,0,0.132304,0,0)"/>
<path style=" stroke:none;fill-rule:nonzero;fill:rgb(0%,0%,0%);fill-opacity:0.196078;" d="M 127.011719 224.269531 C 71.308594 224.269531 26.460938 179.425781 26.460938 123.71875 C 26.460938 123.390625 26.464844 123.0625 26.46875 122.734375 C 26.992188 177.984375 71.636719 222.300781 127.011719 222.300781 C 182.390625 222.300781 227.03125 177.984375 227.558594 122.734375 C 227.558594 123.0625 227.5625 123.390625 227.5625 123.71875 C 227.5625 179.425781 182.71875 224.269531 127.011719 224.269531 Z M 127.011719 224.269531 "/>
<path style=" stroke:none;fill-rule:nonzero;fill:rgb(100%,100%,100%);fill-opacity:0.392157;" d="M 127.011719 23.167969 C 71.308594 23.167969 26.460938 68.015625 26.460938 123.71875 C 26.460938 124.046875 26.464844 124.375 26.46875 124.703125 C 26.992188 69.457031 71.636719 25.136719 127.011719 25.136719 C 182.390625 25.136719 227.03125 69.457031 227.558594 124.703125 C 227.558594 124.375 227.5625 124.046875 227.5625 123.71875 C 227.5625 68.015625 182.71875 23.167969 127.011719 23.167969 Z M 127.011719 23.167969 "/>
<path style=" stroke:none;fill-rule:nonzero;fill:rgb(12.941177%,12.941177%,12.941177%);fill-opacity:1;" d="M 127.011719 22.417969 C 80.066406 22.417969 40.761719 54.058594 29.175781 97.257812 L 30.726562 97.257812 C 42.261719 54.886719 80.878906 23.917969 127.011719 23.917969 C 173.144531 23.917969 211.761719 54.886719 223.296875 97.257812 L 224.847656 97.257812 C 213.265625 54.058594 173.960938 22.417969 127.011719 22.417969 Z M 29.175781 150.179688 C 40.761719 193.382812 80.066406 225.019531 127.011719 225.019531 C 173.957031 225.019531 213.265625 193.382812 224.847656 150.179688 L 223.296875 150.179688 C 211.761719 192.554688 173.144531 223.519531 127.011719 223.519531 C 80.878906 223.519531 42.265625 192.554688 30.726562 150.179688 Z M 29.175781 150.179688 "/>
<path style=" stroke:none;fill-rule:nonzero;fill:url(#linear3);" d="M 127.011719 107.84375 C 135.78125 107.84375 142.886719 114.953125 142.886719 123.71875 C 142.886719 132.488281 135.78125 139.597656 127.011719 139.597656 C 118.242188 139.597656 111.136719 132.488281 111.136719 123.71875 C 111.136719 114.953125 118.242188 107.84375 127.011719 107.84375 Z M 127.011719 107.84375 "/>
<path style=" stroke:none;fill-rule:nonzero;fill:rgb(100%,100%,100%);fill-opacity:0.392157;" d="M 127.011719 107.84375 C 118.214844 107.84375 111.136719 114.925781 111.136719 123.71875 C 111.136719 124.164062 111.15625 124.605469 111.191406 125.042969 C 111.859375 116.871094 118.664062 110.488281 127.011719 110.488281 C 135.363281 110.488281 142.164062 116.871094 142.832031 125.042969 C 142.871094 124.605469 142.886719 124.164062 142.886719 123.71875 C 142.886719 114.925781 135.808594 107.84375 127.011719 107.84375 Z M 127.011719 107.84375 "/>
<path style=" stroke:none;fill-rule:nonzero;fill:rgb(0%,0%,0%);fill-opacity:0.235294;" d="M 127.011719 139.597656 C 118.214844 139.597656 111.136719 132.515625 111.136719 123.71875 C 111.136719 123.273438 111.15625 122.832031 111.191406 122.398438 C 111.859375 130.570312 118.664062 136.949219 127.011719 136.949219 C 135.363281 136.949219 142.164062 130.570312 142.832031 122.398438 C 142.871094 122.832031 142.886719 123.273438 142.886719 123.71875 C 142.886719 132.515625 135.808594 139.597656 127.011719 139.597656 Z M 127.011719 139.597656 "/>
<path style="fill:none;stroke-width:3;stroke-linecap:round;stroke-linejoin:miter;stroke:rgb(12.941177%,12.941177%,12.941177%);stroke-opacity:1;stroke-miterlimit:4;" d="M 253.999182 0.666905 C 271.53657 0.666905 285.74615 14.884297 285.74615 32.413873 C 285.74615 49.951261 271.53657 64.168653 253.999182 64.168653 C 236.461794 64.168653 222.252213 49.951261 222.252213 32.413873 C 222.252213 14.884297 236.461794 0.666905 253.999182 0.666905 Z M 253.999182 0.666905 " transform="matrix(0.500048,0,0,0.500048,0,107.510266)"/>
<path style=" stroke:none;fill-rule:nonzero;fill:url(#linear4);" d="M 179.988281 107.84375 C 188.757812 107.84375 195.863281 114.953125 195.863281 123.71875 C 195.863281 132.488281 188.757812 139.597656 179.988281 139.597656 C 171.21875 139.597656 164.113281 132.488281 164.113281 123.71875 C 164.113281 114.953125 171.21875 107.84375 179.988281 107.84375 Z M 179.988281 107.84375 "/>
<path style=" stroke:none;fill-rule:nonzero;fill:rgb(100%,100%,100%);fill-opacity:0.392157;" d="M 179.988281 107.84375 C 171.191406 107.84375 164.113281 114.925781 164.113281 123.71875 C 164.113281 124.164062 164.132812 124.605469 164.167969 125.042969 C 164.835938 116.871094 171.640625 110.488281 179.988281 110.488281 C 188.339844 110.488281 195.140625 116.871094 195.808594 125.042969 C 195.847656 124.605469 195.863281 124.164062 195.863281 123.71875 C 195.863281 114.925781 188.785156 107.84375 179.988281 107.84375 Z M 179.988281 107.84375 "/>
<path style=" stroke:none;fill-rule:nonzero;fill:rgb(0%,0%,0%);fill-opacity:0.235294;" d="M 179.988281 139.597656 C 171.191406 139.597656 164.113281 132.515625 164.113281 123.71875 C 164.113281 123.273438 164.132812 122.832031 164.167969 122.398438 C 164.835938 130.570312 171.640625 136.949219 179.988281 136.949219 C 188.339844 136.949219 195.140625 130.570312 195.808594 122.398438 C 195.847656 122.832031 195.863281 123.273438 195.863281 123.71875 C 195.863281 132.515625 188.785156 139.597656 179.988281 139.597656 Z M 179.988281 139.597656 "/>
<path style="fill:none;stroke-width:3;stroke-linecap:round;stroke-linejoin:miter;stroke:rgb(12.941177%,12.941177%,12.941177%);stroke-opacity:1;stroke-miterlimit:4;" d="M 253.999288 0.666905 C 271.536676 0.666905 285.746256 14.884297 285.746256 32.413873 C 285.746256 49.951261 271.536676 64.168653 253.999288 64.168653 C 236.4619 64.168653 222.25232 49.951261 222.25232 32.413873 C 222.25232 14.884297 236.4619 0.666905 253.999288 0.666905 Z M 253.999288 0.666905 " transform="matrix(0.500048,0,0,0.500048,52.976509,107.510266)"/>
<path style=" stroke:none;fill-rule:nonzero;fill:url(#linear5);" d="M 74.089844 107.84375 C 82.859375 107.84375 89.96875 114.953125 89.96875 123.71875 C 89.96875 132.488281 82.859375 139.597656 74.089844 139.597656 C 65.320312 139.597656 58.214844 132.488281 58.214844 123.71875 C 58.214844 114.953125 65.320312 107.84375 74.089844 107.84375 Z M 74.089844 107.84375 "/>
<path style=" stroke:none;fill-rule:nonzero;fill:rgb(100%,100%,100%);fill-opacity:0.392157;" d="M 74.089844 107.84375 C 65.292969 107.84375 58.214844 114.925781 58.214844 123.71875 C 58.214844 124.164062 58.234375 124.605469 58.269531 125.042969 C 58.9375 116.871094 65.742188 110.488281 74.089844 110.488281 C 82.441406 110.488281 89.242188 116.871094 89.914062 125.042969 C 89.949219 124.605469 89.96875 124.164062 89.96875 123.71875 C 89.96875 114.925781 82.886719 107.84375 74.089844 107.84375 Z M 74.089844 107.84375 "/>
<path style=" stroke:none;fill-rule:nonzero;fill:rgb(0%,0%,0%);fill-opacity:0.235294;" d="M 74.089844 139.597656 C 65.292969 139.597656 58.214844 132.515625 58.214844 123.71875 C 58.214844 123.273438 58.234375 122.832031 58.269531 122.398438 C 58.9375 130.570312 65.742188 136.949219 74.089844 136.949219 C 82.441406 136.949219 89.242188 130.570312 89.914062 122.398438 C 89.949219 122.832031 89.96875 123.273438 89.96875 123.71875 C 89.96875 132.515625 82.886719 139.597656 74.089844 139.597656 Z M 74.089844 139.597656 "/>
<path style="fill:none;stroke-width:3;stroke-linecap:round;stroke-linejoin:miter;stroke:rgb(12.941177%,12.941177%,12.941177%);stroke-opacity:1;stroke-miterlimit:4;" d="M 253.998867 0.666905 C 271.536254 0.666905 285.753647 14.884297 285.753647 32.413873 C 285.753647 49.951261 271.536254 64.168653 253.998867 64.168653 C 236.461479 64.168653 222.251898 49.951261 222.251898 32.413873 C 222.251898 14.884297 236.461479 0.666905 253.998867 0.666905 Z M 253.998867 0.666905 " transform="matrix(0.500048,0,0,0.500048,-52.921717,107.510266)"/>
</g>
</svg>

<svg xmlns="http://www.w3.org/2000/svg" width="256pt" height="256pt" viewBox="0 0 256 256"><defs><radialGradient id="a" gradientUnits="userSpaceOnUse" cx="450.909" cy="189.579" fx="450.909" fy="189.579" r="21.167" gradientTransform="matrix(0 -.62506 -1.1251 0 356.185 508.763)"><stop offset="0" stop-opacity=".314"/><stop offset=".222" stop-opacity=".275"/><stop offset="1" stop-opacity="0"/></radialGradient><radialGradient id="b" gradientUnits="userSpaceOnUse" cx="450.909" cy="189.579" fx="450.909" fy="189.579" r="21.167" gradientTransform="matrix(0 .62506 1.1251 0 -102.16 -60.22)"><stop offset="0" stop-opacity=".314"/><stop offset=".222" stop-opacity=".275"/><stop offset="1" stop-opacity="0"/></radialGradient><radialGradient id="c" gradientUnits="userSpaceOnUse" cx="450.909" cy="189.579" fx="450.909" fy="189.579" r="21.167" gradientTransform="matrix(0 -.62506 1.1251 0 -102.16 508.763)"><stop offset="0" stop-opacity=".314"/><stop offset=".222" stop-opacity=".275"/><stop offset="1" stop-opacity="0"/></radialGradient><radialGradient id="d" gradientUnits="userSpaceOnUse" cx="450.909" cy="189.579" fx="450.909" fy="189.579" r="21.167" gradientTransform="matrix(0 .62506 -1.1251 0 356.185 -60.22)"><stop offset="0" stop-opacity=".314"/><stop offset=".222" stop-opacity=".275"/><stop offset="1" stop-opacity="0"/></radialGradient><linearGradient id="e" gradientUnits="userSpaceOnUse" x1="255.323" y1="233.5" x2="255.323" y2="254.667" gradientTransform="matrix(.10688 0 0 .50005 99.723 107.51)"><stop offset="0" stop-opacity=".275"/><stop offset="1" stop-opacity="0"/></linearGradient><linearGradient id="f" gradientUnits="userSpaceOnUse" x1="254" y1="-31.083" x2="254" y2="95.917"><stop offset="0" stop-color="#424242"/><stop offset="1" stop-color="#616161"/></linearGradient><linearGradient id="g" gradientUnits="userSpaceOnUse" x1="254" y1="-168.667" x2="254" y2="233.5" gradientTransform="matrix(3.77953 0 0 3.77953 0 812.598)"><stop offset="0" stop-color="#e0e0e0"/><stop offset="1" stop-color="#9e9e9e"/></linearGradient><linearGradient id="h" gradientUnits="userSpaceOnUse" x1="254" y1="64.167" x2="254" y2=".667" gradientTransform="matrix(.50005 0 0 .50005 0 107.51)"><stop offset="0" stop-color="#ef5350"/><stop offset="1" stop-color="#e57373"/></linearGradient><linearGradient id="i" gradientUnits="userSpaceOnUse" x1="254" y1="64.167" x2="254" y2=".667" gradientTransform="matrix(.50005 0 0 .50005 52.977 107.51)"><stop offset="0" stop-color="#ef5350"/><stop offset="1" stop-color="#e57373"/></linearGradient><linearGradient id="j" gradientUnits="userSpaceOnUse" x1="254" y1="64.167" x2="254" y2=".667" gradientTransform="matrix(.50005 0 0 .50005 -52.922 107.51)"><stop offset="0" stop-color="#ef5350"/><stop offset="1" stop-color="#e57373"/></linearGradient></defs><path d="M145.535 224.27h21.168v-10.583h-21.168zm0 0" fill="url(#a)"/><path d="M108.488 224.27H87.32v10.585h21.168zm0 0" fill="url(#b)"/><path d="M108.488 224.27H87.32v-10.583h21.168zm0 0" fill="url(#c)"/><path d="M145.535 224.27h21.168v10.585h-21.168zm0 0" fill="url(#d)"/><path d="M108.488 221.625h37.047v13.23h-37.047zm0 0" fill="url(#e)"/><path d="M74.087-31.08h359.832V95.916H74.088zm0 0" transform="matrix(.50005 0 0 .50005 0 107.51)" fill="url(#f)" stroke-width="3" stroke-linecap="round" stroke="#212121"/><path d="M959.997 175.111c-351.758 0-646.238 236.612-733.601 559.996h1467.232c-87.394-323.384-381.873-559.996-733.631-559.996zm-733.601 959.997c87.363 323.414 381.843 559.996 733.601 559.996 351.787 0 646.237-236.582 733.63-559.996zm0 0" transform="scale(.1323)" fill="url(#g)" stroke-width="11.339" stroke-linecap="round" stroke="#333"/><path d="M127.012 224.27c-55.703 0-100.551-44.844-100.551-100.551 0-.328.004-.656.008-.985.523 55.25 45.168 99.567 100.543 99.567 55.379 0 100.02-44.317 100.547-99.567 0 .329.004.657.004.985 0 55.707-44.844 100.55-100.551 100.55zm0 0" fill-opacity=".196"/><path d="M127.012 23.168c-55.703 0-100.551 44.848-100.551 100.55 0 .329.004.657.008.985.523-55.246 45.168-99.566 100.543-99.566 55.379 0 100.02 44.32 100.547 99.566 0-.328.004-.656.004-.984 0-55.703-44.844-100.551-100.551-100.551zm0 0" fill="#fff" fill-opacity=".392"/><path d="M127.012 22.418c-46.946 0-86.25 31.64-97.836 74.84h1.55c11.536-42.371 50.153-73.34 96.286-73.34s84.75 30.969 96.285 73.34h1.55c-11.581-43.2-50.886-74.84-97.835-74.84zM29.176 150.18c11.586 43.203 50.89 74.84 97.836 74.84 46.945 0 86.254-31.637 97.836-74.84h-1.551c-11.535 42.375-50.152 73.34-96.285 73.34-46.133 0-84.746-30.965-96.285-73.34zm0 0" fill="#212121"/><path d="M127.012 107.844c8.77 0 15.875 7.11 15.875 15.875 0 8.77-7.106 15.879-15.875 15.879-8.77 0-15.875-7.11-15.875-15.88 0-8.765 7.105-15.874 15.875-15.874zm0 0" fill="url(#h)"/><path d="M127.012 107.844a15.84 15.84 0 0 0-15.875 15.875c0 .445.02.886.054 1.324a15.84 15.84 0 0 1 15.82-14.555 15.837 15.837 0 0 1 15.821 14.555c.04-.438.055-.879.055-1.324a15.84 15.84 0 0 0-15.875-15.875zm0 0" fill="#fff" fill-opacity=".392"/><path d="M127.012 139.598a15.84 15.84 0 0 1-15.875-15.88c0-.445.02-.886.054-1.32a15.836 15.836 0 0 0 15.82 14.551 15.833 15.833 0 0 0 15.821-14.55c.04.433.055.874.055 1.32a15.84 15.84 0 0 1-15.875 15.879zm0 0" fill-opacity=".235"/><path d="M127.012 107.844c8.77 0 15.875 7.11 15.875 15.875 0 8.77-7.106 15.879-15.875 15.879-8.77 0-15.875-7.11-15.875-15.88 0-8.765 7.105-15.874 15.875-15.874zm0 0" fill="none" stroke-width="1.50015" stroke-linecap="round" stroke="#212121"/><path d="M179.988 107.844c8.77 0 15.875 7.11 15.875 15.875 0 8.77-7.105 15.879-15.875 15.879s-15.875-7.11-15.875-15.88c0-8.765 7.106-15.874 15.875-15.874zm0 0" fill="url(#i)"/><path d="M179.988 107.844a15.84 15.84 0 0 0-15.875 15.875c0 .445.02.886.055 1.324a15.84 15.84 0 0 1 15.82-14.555 15.837 15.837 0 0 1 15.82 14.555c.04-.438.055-.879.055-1.324a15.84 15.84 0 0 0-15.875-15.875zm0 0" fill="#fff" fill-opacity=".392"/><path d="M179.988 139.598a15.84 15.84 0 0 1-15.875-15.88c0-.445.02-.886.055-1.32a15.836 15.836 0 0 0 15.82 14.551 15.833 15.833 0 0 0 15.82-14.55c.04.433.055.874.055 1.32a15.84 15.84 0 0 1-15.875 15.879zm0 0" fill-opacity=".235"/><path d="M179.988 107.844c8.77 0 15.875 7.11 15.875 15.875 0 8.77-7.105 15.879-15.875 15.879s-15.875-7.11-15.875-15.88c0-8.765 7.106-15.874 15.875-15.874zm0 0" fill="none" stroke-width="1.50015" stroke-linecap="round" stroke="#212121"/><path d="M74.09 107.844c8.77 0 15.879 7.11 15.879 15.875 0 8.77-7.11 15.879-15.88 15.879-8.769 0-15.874-7.11-15.874-15.88 0-8.765 7.105-15.874 15.875-15.874zm0 0" fill="url(#j)"/><path d="M74.09 107.844a15.84 15.84 0 0 0-15.875 15.875c0 .445.02.886.055 1.324a15.84 15.84 0 0 1 15.82-14.555 15.843 15.843 0 0 1 15.824 14.555c.035-.438.055-.879.055-1.324a15.843 15.843 0 0 0-15.88-15.875zm0 0" fill="#fff" fill-opacity=".392"/><path d="M74.09 139.598a15.84 15.84 0 0 1-15.875-15.88c0-.445.02-.886.055-1.32a15.836 15.836 0 0 0 15.82 14.551 15.84 15.84 0 0 0 15.824-14.55c.035.433.055.874.055 1.32a15.844 15.844 0 0 1-15.88 15.879zm0 0" fill-opacity=".235"/><path d="M74.09 107.844c8.77 0 15.879 7.11 15.879 15.875 0 8.77-7.11 15.879-15.88 15.879-8.769 0-15.874-7.11-15.874-15.88 0-8.765 7.105-15.874 15.875-15.874zm0 0" fill="none" stroke-width="1.50015" stroke-linecap="round" stroke="#212121"/></svg>
